X: 18
T:The Greenwood Tree
% Nottingham Music Database
S:FTB 1/34
M:3/4
L:1/4
K:D
A|"D"ffe|"D/f+"d2c/2d/2|"G"B2c/2B/2|"D"AFF/2G/2|"D"AA/2B/2A/2F/2|"Bm"Ade|
"E7"f3/2e/2d|"A7"e2A|"D"ffe|"D/f+"d2c/2d/2|"G"B2c/2B/2|"D"AFF/2G/2|\
"D"AA/2B/2A/2F/2|
"Bm"Ade|"Em"f3/2g/2"A7"e/2c/2|"D"d2F|"Bm"BB"F#7"c|"Bm"d2F|"Bm"d2"E7"c/2B/2|\
"A7"AFF/2G/2|
"D"AA/2B/2A/2F/2|"Bm"Ade|"E7"f3/2e/2d|"A7"e2A|"D"ffe|"D/f+"d2c/2d/2|
"G"B2c/2B/2|"D"AFF/2G/2|"D"AA/2B/2A/2F/2|"Bm"Ade|"Em"f3/2g/2"A7"e/2c/2|"D"d2:|


